blockchains/zcash/logo.svg

<svg fill="none" height="250" viewBox="0 0 250 250" width="250" xmlns="http://www.w3.org/2000/svg" xmlns:xlink="http://www.w3.org/1999/xlink"><clipPath id="a"><path d="m0 0h250v250h-250z"/></clipPath><g clip-path="url(#a)"><path d="m125 0c-68.933 0-125 56.067-125 125s56.067 125 125 125 125-56.067 125-125-56.067-125-125-125zm0 229.37c-57.5643 0-104.37-46.806-104.37-104.37 0-57.5643 46.8057-104.37 104.37-104.37 57.564 0 104.37 46.8057 104.37 104.37 0 57.564-46.806 104.37-104.37 104.37z" fill="#231f20"/><path d="m125.001 223.492c54.395 0 98.492-44.096 98.492-98.492 0-54.395-44.097-98.4912-98.492-98.4912-54.3953 0-98.4915 44.0962-98.4915 98.4912 0 54.396 44.0962 98.492 98.4915 98.492z" fill="#f4b728"/><path d="m80.4087 163.875v19.078h34.1063v20.907h20.962v-20.907h34.106v-25.233h-52.905l52.905-71.7617v-19.0772h-34.106v-20.8518h-20.962v20.8518h-34.1063v25.2884h52.9063z" fill="#231f20"/></g></svg>

<svg width="250" height="250" viewBox="0 0 250 250" fill="none" xmlns="http://www.w3.org/2000/svg">
<g clip-path="url(#clip0_7_339)">
<path d="M125 0C56.067 0 0 56.067 0 125C0 193.933 56.067 250 125 250C193.933 250 250 193.933 250 125C250 56.067 193.933 0 125 0ZM125 229.37C67.4357 229.37 20.63 182.564 20.63 125C20.63 67.4357 67.4357 20.63 125 20.63C182.564 20.63 229.37 67.4357 229.37 125C229.37 182.564 182.564 229.37 125 229.37V229.37Z" fill="#231F20"/>
<path d="M125.001 223.492C179.396 223.492 223.493 179.396 223.493 125C223.493 70.605 179.396 26.5088 125.001 26.5088C70.6057 26.5088 26.5095 70.605 26.5095 125C26.5095 179.396 70.6057 223.492 125.001 223.492Z" fill="#F4B728"/>
<path d="M80.4087 163.875V182.953H114.515V203.86H135.477V182.953H169.583V157.72H116.678L169.583 85.9583V66.8811H135.477V46.0293H114.515V66.8811H80.4087V92.1695H133.315L80.4087 163.875Z" fill="#231F20"/>
</g>
<defs>
<clipPath id="clip0_7_339">
<rect width="250" height="250" fill="white"/>
</clipPath>
</defs>
</svg>
